public/icons/networks/metis.svg

<svg width="24" height="24" viewBox="0 0 24 24" fill="none" xmlns="http://www.w3.org/2000/svg">
<path d="M23.9981 11.7411C23.9516 9.58776 23.3263 7.48663 22.188 5.65816C21.0497 3.82968 19.4402 2.34128 17.5285 1.34909C15.6168 0.356913 13.4733 -0.102467 11.3229 0.0191483C9.17244 0.140764 7.09439 0.838893 5.30673 2.04029C3.51907 3.24169 2.08769 4.90206 1.16279 6.84722C0.237879 8.79238 -0.146467 10.9506 0.0500692 13.0955C0.246605 15.2403 1.01678 17.2928 2.27979 19.0375C3.5428 20.7821 5.25209 22.1547 7.22831 23.0112C7.81203 22.1339 8.2588 21.1728 8.55328 20.161C8.79389 19.5488 9.05517 18.9468 9.326 18.3643C9.97937 18.5601 10.6736 18.5747 11.3347 18.4067C11.9957 18.2387 12.5987 17.8943 13.0793 17.4104L13.1196 17.3701C12.5293 17.1506 11.8931 17.0841 11.2702 17.1767C10.6472 17.2694 10.0579 17.5182 9.55707 17.9001C9.88831 17.2074 10.2498 16.5354 10.6207 15.8829C11.2621 16.1098 11.9532 16.1578 12.6198 16.0216C13.2863 15.8855 13.9032 15.5704 14.4043 15.1102L14.4446 15.0699C13.8743 14.8287 13.2532 14.7327 12.6367 14.7905C12.0202 14.8483 11.4277 15.0581 10.9122 15.4012C11.2832 14.7891 11.6648 14.187 12.0666 13.6247C12.7303 13.799 13.4291 13.7883 14.0872 13.5937C14.7453 13.3991 15.3376 13.028 15.7998 12.5207L15.83 12.4804C15.2818 12.3017 14.6994 12.254 14.1295 12.3411C13.5595 12.4283 13.018 12.6479 12.5483 12.9823C12.5785 12.9421 12.6188 12.8922 12.6485 12.852C12.8891 12.5409 13.1403 12.2298 13.3905 11.9287C14.1543 11.6788 14.8354 11.2252 15.3607 10.6169C15.8859 10.0086 16.2352 9.26852 16.3711 8.47641L16.3812 8.41598H16.3711C15.5757 8.62283 14.8542 9.04834 14.2884 9.64428C13.7225 10.2402 13.3349 10.9828 13.1695 11.7878C12.9288 12.0787 12.6877 12.3707 12.4571 12.6707C12.6518 12.1619 12.7312 11.6163 12.6896 11.0731C12.648 10.5299 12.4864 10.0027 12.2165 9.52949L12.1863 9.56976C11.7769 10.129 11.5302 10.7906 11.4735 11.4814C11.4168 12.1722 11.5524 12.8652 11.8652 13.4837C11.4836 14.0259 11.1126 14.5776 10.7612 15.1595C10.8744 14.5745 10.845 13.9709 10.6755 13.3997C10.506 12.8285 10.2015 12.3065 9.78761 11.8778L9.76747 11.9282C9.51146 12.5661 9.43597 13.2621 9.54927 13.9401C9.66257 14.618 9.9603 15.2517 10.4098 15.7716C10.0584 16.3838 9.72719 17.016 9.40602 17.6685C9.50359 17.0591 9.45433 16.4353 9.26232 15.8489C9.07031 15.2625 8.7411 14.7303 8.30207 14.2967L8.28193 14.347C8.05295 15.0157 8.01045 15.7341 8.15901 16.4251C8.30757 17.116 8.64157 17.7535 9.12513 18.2689C8.91314 18.7205 8.71386 19.1699 8.52307 19.6437C8.47059 19.5955 8.4092 19.5581 8.34235 19.5335C7.99994 19.434 7.67247 19.2889 7.36876 19.1021C7.11768 18.9531 6.85111 18.8319 6.57378 18.7406C5.48996 18.3892 5.65055 17.8677 5.08983 16.8136C4.90737 16.5966 4.71347 16.3894 4.50896 16.193C4.31924 16.0699 4.16387 15.9007 4.05742 15.7012C3.93378 15.452 3.85552 15.1828 3.82634 14.9062C3.82302 14.7532 3.77185 14.6051 3.68003 14.4826C3.5882 14.3602 3.46033 14.2696 3.31438 14.2236C1.71859 13.6718 2.43142 11.6044 2.49131 11.333C2.46678 10.9821 2.38886 10.637 2.26024 10.3096C2.24679 10.267 2.23669 10.2234 2.23003 10.1792C2.18745 9.96503 2.19521 9.74385 2.25269 9.53315C2.31017 9.32244 2.41581 9.12797 2.56127 8.96505C2.75206 8.77426 3.41454 8.46315 3.55499 8.28243C3.69543 8.1017 3.7956 7.90084 3.93658 7.73071C4.38246 7.28594 4.89759 6.91651 5.46187 6.63683C5.92349 6.38614 6.00405 5.7438 6.18425 5.54294C6.48528 5.20163 6.9469 5.20163 7.28821 4.9006C7.45886 4.75008 7.71219 4.66952 7.87119 4.50947C8.6728 3.77534 9.68304 3.30893 10.7617 3.17496C11.5097 3.11398 12.2627 3.18192 12.9877 3.37583C13.0926 3.39345 13.1965 3.41699 13.2988 3.44632C14.9544 3.50673 16.9419 3.84751 17.6642 4.55027C18.0219 4.8939 18.2876 5.32177 18.437 5.79468C18.5543 6.1609 18.7161 6.51136 18.9187 6.83822L19.3602 7.56059C19.6415 8.01612 19.7316 8.56428 19.6109 9.08588C19.5295 9.33953 19.5226 9.61118 19.5907 9.86868C19.8236 10.2202 20.0964 10.5435 20.4037 10.8322C20.5258 10.953 20.6603 11.0607 20.8049 11.1534C21.1447 11.356 21.4731 11.5772 21.7886 11.8158C21.799 11.9126 21.7829 12.0103 21.7423 12.0986C21.7016 12.187 21.6377 12.2627 21.5575 12.3177C21.2766 12.5684 20.7345 12.9601 20.7345 12.9601C20.7541 13.071 20.7877 13.1789 20.8346 13.2812C20.9146 13.4217 21.0954 13.6427 21.0355 13.833C20.9756 14.0232 20.5839 14.1843 20.6942 14.3947C20.8044 14.6158 21.0853 14.6756 21.0053 14.8765C20.9252 15.0673 20.5336 15.4065 20.5739 15.5491C20.6141 15.6916 20.9353 17.033 20.1923 17.2651C19.2727 17.447 18.3395 17.5511 17.4024 17.5762C17.2513 17.585 17.1048 17.6319 16.9767 17.7126C16.8486 17.7933 16.7431 17.9053 16.67 18.0379C16.5278 18.3031 16.4359 18.5924 16.3992 18.8911C16.1281 19.9594 15.7689 21.0033 15.3254 22.0122C15.3254 22.0122 15.2952 22.0726 15.2549 22.1627C15.1576 22.3611 15.0964 22.5752 15.0742 22.795C15.1374 22.9565 15.233 23.1033 15.3551 23.2264C15.4194 23.3001 15.5037 23.3535 15.5978 23.3802C15.6919 23.4069 15.7917 23.4058 15.8851 23.3769C18.2903 22.5387 20.3696 20.9626 21.8264 18.8732C23.2832 16.7838 24.0432 14.2878 23.9981 11.7411Z" fill="#00DACC"/>
</svg>

<svg width="24" height="24" viewBox="0 0 24 24" fill="none" xmlns="http://www.w3.org/2000/svg"><path d="M23.998 11.741a12 12 0 1 0-16.77 11.27 10.383 10.383 0 0 0 1.325-2.85c.24-.612.502-1.214.773-1.797a3.766 3.766 0 0 0 3.753-.954l.04-.04a3.732 3.732 0 0 0-3.562.53 32.21 32.21 0 0 1 1.064-2.017 3.746 3.746 0 0 0 3.783-.773l.04-.04a3.744 3.744 0 0 0-3.532.331c.371-.612.753-1.214 1.155-1.776A3.759 3.759 0 0 0 15.8 12.52l.03-.04a3.689 3.689 0 0 0-3.282.501l.1-.13c.241-.311.492-.622.742-.923a4.419 4.419 0 0 0 2.981-3.453l.01-.06h-.01a4.398 4.398 0 0 0-3.201 3.372c-.241.29-.482.583-.713.883a3.683 3.683 0 0 0-.24-3.142l-.03.04a3.756 3.756 0 0 0-.322 3.915 28.533 28.533 0 0 0-1.104 1.675 3.709 3.709 0 0 0-.973-3.281l-.02.05a3.744 3.744 0 0 0 .642 3.844 33.698 33.698 0 0 0-1.004 1.897 3.877 3.877 0 0 0-1.104-3.372l-.02.05a3.89 3.89 0 0 0 .843 3.922c-.212.452-.411.9-.602 1.375a.546.546 0 0 0-.18-.11c-.343-.1-.67-.245-.974-.432a4.022 4.022 0 0 0-.795-.361c-1.084-.352-.923-.873-1.484-1.927a7.987 7.987 0 0 0-.581-.621 1.336 1.336 0 0 1-.452-.492 2.341 2.341 0 0 1-.23-.795.733.733 0 0 0-.513-.682c-1.595-.552-.883-2.62-.823-2.891a3.458 3.458 0 0 0-.23-1.023 1.41 1.41 0 0 1 .301-1.345c.19-.19.853-.502.993-.683.14-.18.24-.381.382-.551a5.819 5.819 0 0 1 1.525-1.094c.461-.25.542-.893.722-1.094.301-.341.763-.341 1.104-.642.17-.15.424-.231.583-.392a5.235 5.235 0 0 1 2.89-1.334 6.554 6.554 0 0 1 2.227.2c.105.018.209.042.31.071 1.656.06 3.644.402 4.366 1.104.358.344.624.772.773 1.245.117.366.28.716.482 1.043l.441.723a2.02 2.02 0 0 1 .25 1.525 1.395 1.395 0 0 0-.02.783c.234.351.506.675.814.963.122.121.256.229.4.321.34.203.67.424.985.663a.54.54 0 0 1-.232.502c-.28.25-.822.642-.822.642.02.111.053.219.1.321.08.14.26.362.2.552-.06.19-.451.351-.34.562.11.22.39.28.31.482-.08.19-.471.53-.431.672.04.143.361 1.484-.382 1.716-.92.182-1.852.286-2.79.311a.897.897 0 0 0-.732.462 2.434 2.434 0 0 0-.27.853 19.95 19.95 0 0 1-1.075 3.121s-.03.06-.07.15a1.86 1.86 0 0 0-.18.633c.062.161.158.308.28.431a.505.505 0 0 0 .53.15 12.095 12.095 0 0 0 8.113-11.635Z" fill="#00DACC"/></svg>
